Dominus_Funeral/22/apps/vkaudiosaver.svg

<svg xmlns="http://www.w3.org/2000/svg" width="24" height="24" viewBox="0 0 6.35 6.35"><defs><linearGradient id="a"><stop offset="0"/><stop offset="1" stop-opacity="0"/></linearGradient></defs><path d="M3.06.47c-.32 0-.6 0-.76.07-.1.06-.19.18-.13.19.05 0 .2.03.27.14.1.13.08.42.08.42s.06.82-.12.92c-.12.08-.3-.07-.66-.72-.18-.33-.32-.7-.32-.7S1.4.73 1.34.69C1.3.64 1.2.62 1.2.62L.33.63S.21.63.16.7C.11.75.16.85.16.85S.83 2.51 1.6 3.33c.71.76 1.5.71 1.5.71h.38s.1-.01.15-.08c.06-.05.06-.15.06-.15s0-.52.22-.59c.22-.08.5.5.81.71.23.16.4.13.4.13l.81-.02s.43-.02.22-.37c-.01-.03-.1-.26-.6-.72-.5-.5-.44-.41.18-1.26.37-.52.52-.83.47-.96C6.15.6 5.9.63 5.9.63h-.92s-.07 0-.12.03c-.05.03-.07.1-.07.1s-.15.4-.34.74c-.41.71-.58.75-.64.7-.16-.1-.12-.41-.12-.62 0-.7.1-1-.2-1.07a1.51 1.51 0 0 0-.42-.04zM1.43 4.76c-.06 0-.1 0-.15.02a.27.27 0 0 0-.11.06.34.34 0 0 0-.09.24l.03.12a.3.3 0 0 0 .06.1l.08.06.07.04.08.04.06.04.03.04a.1.1 0 0 1 .02.06l-.01.05-.02.03-.05.03H1.3l-.08-.03-.07-.02-.08-.04v.22l.14.05.16.01a.5.5 0 0 0 .15-.02.23.23 0 0 0 .12-.06.34.34 0 0 0 .08-.1.38.38 0 0 0 .02-.13c0-.05-.01-.09-.03-.12a.17.17 0 0 0-.05-.08.35.35 0 0 0-.08-.07l-.1-.06-.08-.05-.06-.04-.02-.04-.02-.04a.1.1 0 0 1 .03-.08c.03-.02.06-.03.1-.03h.05l.06.01.05.02.07.03.08-.18-.08-.03a.15.15 0 0 0-.08-.03l-.07-.02zm.73 0l-.35 1.1h.23l.08-.25h.37l.08.26h.24l-.36-1.1zm.6.01l.35 1.1h.25l.35-1.1h-.24l-.18.67-.02.04-.01.06-.02.08v.06l-.02-.06-.01-.07-.02-.07v-.04L3 4.77zm1.08 0v1.1h.63v-.19h-.4V5.4h.38v-.2h-.37v-.24h.39v-.19zm.86 0v1.1h.23v-.42h.1l.24.42h.26l-.01-.02-.04-.05-.04-.08-.06-.09-.15-.23.07-.05a.22.22 0 0 0 .06-.06l.04-.08a.32.32 0 0 0 .01-.1c0-.12-.03-.2-.09-.26-.07-.05-.17-.08-.32-.08zm-2.39.15V5l.03.08.03.06v.05l.07.23h-.27l.08-.23v-.03l.01-.04.02-.04V5l.02-.05zm2.62.04H5c.06 0 .1.01.13.03.03.03.05.07.05.12 0 .05-.02.09-.04.11-.03.03-.08.04-.14.04h-.07z" fill="#1a1a1a" fill-rule="evenodd"/></svg>

<?xml version="1.0" encoding="UTF-8" standalone="no"?>
<svg
   xmlns:dc="http://purl.org/dc/elements/1.1/"
   xmlns:cc="http://creativecommons.org/ns#"
   xmlns:rdf="http://www.w3.org/1999/02/22-rdf-syntax-ns#"
   xmlns:svg="http://www.w3.org/2000/svg"
   xmlns="http://www.w3.org/2000/svg"
   xmlns:sodipodi="http://sodipodi.sourceforge.net/DTD/sodipodi-0.dtd"
   xmlns:inkscape="http://www.inkscape.org/namespaces/inkscape"
   width="24"
   height="24"
   viewBox="0 0 6.35 6.35"
   version="1.1"
   id="svg11"
   sodipodi:docname="vkaudiosaver.svg"
   inkscape:version="0.92.4 (5da689c313, 2019-01-14)">
  <metadata
     id="metadata15">
    <rdf:RDF>
      <cc:Work
         rdf:about="">
        <dc:format>image/svg+xml</dc:format>
        <dc:type
           rdf:resource="http://purl.org/dc/dcmitype/StillImage" />
        <dc:title></dc:title>
      </cc:Work>
    </rdf:RDF>
  </metadata>
  <sodipodi:namedview
     pagecolor="#ffffff"
     bordercolor="#666666"
     borderopacity="1"
     objecttolerance="10"
     gridtolerance="10"
     guidetolerance="10"
     inkscape:pageopacity="0"
     inkscape:pageshadow="2"
     inkscape:window-width="1138"
     inkscape:window-height="480"
     id="namedview13"
     showgrid="false"
     inkscape:zoom="9.8333333"
     inkscape:cx="1.0677966"
     inkscape:cy="12"
     inkscape:window-x="0"
     inkscape:window-y="25"
     inkscape:window-maximized="0"
     inkscape:current-layer="svg11" />
  <defs
     id="defs7">
    <linearGradient
       id="a">
      <stop
         offset="0"
         id="stop2" />
      <stop
         offset="1"
         stop-opacity="0"
         id="stop4" />
    </linearGradient>
  </defs>
  <path
     d="m 3.06,0.47 c -0.32,0 -0.6,0 -0.76,0.07 -0.1,0.06 -0.19,0.18 -0.13,0.19 0.05,0 0.2,0.03 0.27,0.14 0.1,0.13 0.08,0.42 0.08,0.42 0,0 0.06,0.82 -0.12,0.92 C 2.28,2.29 2.1,2.14 1.74,1.49 1.56,1.16 1.42,0.79 1.42,0.79 1.42,0.79 1.4,0.73 1.34,0.69 1.3,0.64 1.2,0.62 1.2,0.62 L 0.33,0.63 c 0,0 -0.12,0 -0.17,0.07 -0.05,0.05 0,0.15 0,0.15 0,0 0.67,1.66 1.44,2.48 0.71,0.76 1.5,0.71 1.5,0.71 h 0.38 c 0,0 0.1,-0.01 0.15,-0.08 0.06,-0.05 0.06,-0.15 0.06,-0.15 0,0 0,-0.52 0.22,-0.59 0.22,-0.08 0.5,0.5 0.81,0.71 0.23,0.16 0.4,0.13 0.4,0.13 L 5.93,4.04 c 0,0 0.43,-0.02 0.22,-0.37 C 6.14,3.64 6.05,3.41 5.55,2.95 5.05,2.45 5.11,2.54 5.73,1.69 6.1,1.17 6.25,0.86 6.2,0.73 6.15,0.6 5.9,0.63 5.9,0.63 H 4.98 c 0,0 -0.07,0 -0.12,0.03 -0.05,0.03 -0.07,0.1 -0.07,0.1 0,0 -0.15,0.4 -0.34,0.74 C 4.04,2.21 3.87,2.25 3.81,2.2 3.65,2.1 3.69,1.79 3.69,1.58 c 0,-0.7 0.1,-1 -0.2,-1.07 A 1.51,1.51 0 0 0 3.07,0.47 Z M 1.43,4.76 c -0.06,0 -0.1,0 -0.15,0.02 A 0.27,0.27 0 0 0 1.17,4.84 0.34,0.34 0 0 0 1.08,5.08 L 1.11,5.2 A 0.3,0.3 0 0 0 1.17,5.3 L 1.25,5.36 1.32,5.4 1.4,5.44 1.46,5.48 1.49,5.52 A 0.1,0.1 0 0 1 1.51,5.58 L 1.5,5.63 1.48,5.66 1.43,5.69 H 1.3 L 1.22,5.66 1.15,5.64 1.07,5.6 V 5.82 L 1.21,5.87 1.37,5.88 A 0.5,0.5 0 0 0 1.52,5.86 0.23,0.23 0 0 0 1.64,5.8 0.34,0.34 0 0 0 1.72,5.7 0.38,0.38 0 0 0 1.74,5.57 C 1.74,5.52 1.73,5.48 1.71,5.45 A 0.17,0.17 0 0 0 1.66,5.37 0.35,0.35 0 0 0 1.58,5.3 L 1.48,5.24 1.4,5.19 1.34,5.15 1.32,5.11 1.3,5.07 A 0.1,0.1 0 0 1 1.33,4.99 C 1.36,4.97 1.39,4.96 1.43,4.96 H 1.48 L 1.54,4.97 1.59,4.99 1.66,5.02 1.74,4.84 1.66,4.81 A 0.15,0.15 0 0 0 1.58,4.78 L 1.51,4.76 Z m 0.73,0 -0.35,1.1 H 2.04 L 2.12,5.61 H 2.49 L 2.57,5.87 H 2.81 L 2.45,4.77 Z m 0.6,0.01 0.35,1.1 H 3.36 L 3.71,4.77 H 3.47 L 3.29,5.44 3.27,5.48 3.26,5.54 3.24,5.62 V 5.68 L 3.22,5.62 3.21,5.55 3.19,5.48 V 5.44 L 3,4.77 Z m 1.08,0 v 1.1 H 4.47 V 5.68 H 4.07 V 5.4 H 4.45 V 5.2 H 4.08 V 4.96 H 4.47 V 4.77 Z m 0.86,0 v 1.1 H 4.93 V 5.45 h 0.1 L 5.27,5.87 H 5.53 L 5.52,5.85 5.48,5.8 5.44,5.72 5.38,5.63 5.23,5.4 5.3,5.35 A 0.22,0.22 0 0 0 5.36,5.29 L 5.4,5.21 A 0.32,0.32 0 0 0 5.41,5.11 C 5.41,4.99 5.38,4.91 5.32,4.85 5.25,4.8 5.15,4.77 5,4.77 Z M 2.31,4.92 V 5 L 2.34,5.08 2.37,5.14 V 5.19 L 2.44,5.42 H 2.17 L 2.25,5.19 V 5.16 L 2.26,5.12 2.28,5.08 V 5 L 2.3,4.95 Z M 4.93,4.96 H 5 c 0.06,0 0.1,0.01 0.13,0.03 C 5.16,5.02 5.18,5.06 5.18,5.11 5.18,5.16 5.16,5.2 5.14,5.22 5.11,5.25 5.06,5.26 5,5.26 H 4.93 Z"
     id="path9"
     inkscape:connector-curvature="0"
     style="fill:#1a1a1a;fill-rule:evenodd" />
</svg>
